local/share/icons/dracula-icons-main/22/actions/xc_crosshair.svg

<svg xmlns="http://www.w3.org/2000/svg" width="22" height="22" version="1.1" viewBox="0 0 22 22">
 <defs>
  <style id="current-color-scheme" type="text/css">
   .ColorScheme-Text { color:#FFFFFF; } .ColorScheme-Highlight { color:#5294e2; }
  </style>
 </defs>
 <path style="fill:currentColor" class="ColorScheme-Text" d="m 9,3 0,6 4,0 0,-6 -4,0 z m 4,6 0,4 6,0 0,-4 -6,0 z m 0,4 -4,0 0,6 4,0 0,-6 z m -4,0 0,-4 -6,0 0,4 6,0 z"/>
</svg>

<?xml version="1.0" encoding="UTF-8"?>
<svg xmlns="http://www.w3.org/2000/svg" xmlns:xlink="http://www.w3.org/1999/xlink" width="22" height="22" viewBox="0 0 22 22">
<path fill-rule="nonzero" fill="rgb(100%, 100%, 100%)" fill-opacity="1" d="M 9 3 L 9 9 L 13 9 L 13 3 Z M 13 9 L 13 13 L 19 13 L 19 9 Z M 13 13 L 9 13 L 9 19 L 13 19 Z M 9 13 L 9 9 L 3 9 L 3 13 Z M 9 13 "/>
</svg>
